X: 16323
T: Grumbler, The
R: reel
M: 4/4
K: Gmajor
|:EF GE C2 CE|D2 DE DE FD|EF GE CC [CE]C|DD ED E2 ED:|
|:EF GB E2 ED|EF GB C2 CB,|CD EC D2 DE|1 DE FD E2 ED:|2 DE FD E4||

